X: 37543
T: Slopes Of Slieve Gullion, The
R: slip jig
M: 9/8
K: Gmajor
G2 B BGB dBd|ecA A2 G FED|G2 B BGB dBd|ede fef gdB|
G2 B BGB dBd|ecA A2 G FED|G2 B BGB dBd|1 ede fef gdB:|2 ede fef g2a||
|:b2 g agf g2 e|gfg e2 g fed|ede fef g3|egf e2 d ega|
b2 g agf g2 e|gfg e2 g fed|ede fef g3|1 ede fef g2 a:|2 ede fef gdB||

